src/Pure/16/symbolic/actions/builder-build-symbolic.svg

<?xml version="1.0" encoding="UTF-8" standalone="no"?>
<svg
   width="16px"
   height="16px"
   version="1.1"
   viewBox="0 0 16 16"
   id="svg1"
   sodipodi:docname="builder-build-symbolic.svg"
   inkscape:version="1.4.2 (ebf0e940d0, 2025-05-08)"
   xmlns:inkscape="http://www.inkscape.org/namespaces/inkscape"
   xmlns:sodipodi="http://sodipodi.sourceforge.net/DTD/sodipodi-0.dtd"
   xmlns="http://www.w3.org/2000/svg"
   xmlns:svg="http://www.w3.org/2000/svg">
  <defs
     id="defs1">
     <style id="current-color-scheme" type="text/css">
        .ColorScheme-Text { color:#363636; }
     </style>
  </defs>
  <sodipodi:namedview
     id="namedview1"
     pagecolor="#ffffff"
     bordercolor="#000000"
     borderopacity="0.25"
     inkscape:showpageshadow="2"
     inkscape:pageopacity="0.0"
     inkscape:pagecheckerboard="0"
     inkscape:deskcolor="#d1d1d1"
     inkscape:zoom="49.6875"
     inkscape:cx="8"
     inkscape:cy="8"
     inkscape:window-width="1920"
     inkscape:window-height="1010"
     inkscape:window-x="0"
     inkscape:window-y="0"
     inkscape:window-maximized="1"
     inkscape:current-layer="svg1" />
  <path
     id="path1"
     style="fill:currentColor"
     class="ColorScheme-Text"
     d="M 8.2050781 0.25390625 C 7.0703781 0.26302605 5.7427906 0.56185437 4.4003906 1.1152344 L 4.2753906 1.1679688 L 4.1933594 1.2753906 C 4.1218724 1.3691606 3.9877756 1.5961169 4.0722656 1.8730469 L 4.078125 1.8925781 L 4.0859375 1.9121094 C 4.1815545 2.1513494 4.4653412 2.3471237 4.7382812 2.3398438 L 4.7460938 2.3398438 C 5.7054837 2.2971098 7.0193906 2.5291669 7.7128906 3.2167969 L 7.7148438 3.21875 C 7.8750538 3.37896 8.0497937 3.535795 8.1523438 3.796875 C 8.2203708 3.970065 8.1948883 4.366375 7.9257812 4.640625 L 7.9140625 4.6523438 C 7.7485125 4.8079937 7.4621556 5.0894594 7.1972656 5.3496094 L 6.8359375 5.703125 L 9.28125 8.1484375 L 10.451172 7.0449219 L 10.453125 7.0429688 C 10.588215 6.9118588 10.769521 6.86325 10.957031 6.875 C 11.153221 6.887294 11.324834 6.9558408 11.464844 7.0898438 C 11.724614 7.3457137 11.723984 7.7759862 11.464844 8.0351562 C 11.217094 8.2793962 11.219454 8.7352488 11.464844 8.9804688 L 11.466797 8.9824219 L 11.941406 9.5117188 L 11.953125 9.5234375 C 12.142875 9.7097575 12.409409 9.8178306 12.667969 9.8066406 C 12.926489 9.7954576 13.164144 9.6757 13.339844 9.5 L 15.705078 7.1386719 L 15.707031 7.1367188 C 16.086541 6.7534988 16.084277 6.1063625 15.710938 5.7265625 L 15.708984 5.7246094 L 15.220703 5.2363281 L 15.214844 5.2324219 C 15.138774 5.1608319 15.039999 5.0853981 14.880859 5.0488281 C 14.721719 5.0122511 14.493937 5.0509956 14.341797 5.1660156 L 14.318359 5.1816406 L 14.298828 5.2011719 C 14.037218 5.4487519 13.619699 5.4479042 13.355469 5.1992188 C 13.178248 5.0183212 13.116673 4.7523489 13.195312 4.515625 L 13.189453 4.5234375 L 13.203125 4.4941406 C 13.203319 4.4936209 13.20293 4.4927069 13.203125 4.4921875 L 13.205078 4.4882812 C 13.205554 4.4870365 13.206547 4.4856179 13.207031 4.484375 L 13.207031 4.4824219 L 13.208984 4.4804688 L 13.208984 4.4785156 L 13.208984 4.4765625 C 13.410394 3.9991525 13.2813 3.484455 13.03125 3.234375 C 12.08086 2.280105 11.419881 1.589125 10.863281 1.078125 L 10.847656 1.0625 C 10.289536 0.50252 9.3650781 0.24458625 8.2050781 0.25390625 z M 8.2128906 1.2539062 C 9.1997306 1.2459763 9.904625 1.5326812 10.140625 1.7695312 L 10.148438 1.7773438 L 10.164062 1.7929688 L 10.171875 1.8007812 C 10.688285 2.2738612 11.360519 2.9737062 12.324219 3.9414062 L 12.326172 3.9433594 C 12.326874 3.9442415 12.327584 3.9463208 12.328125 3.9472656 L 12.330078 3.9492188 L 12.330078 3.9511719 L 12.330078 3.953125 C 12.332506 3.9672855 12.322897 3.9924694 12.294922 4.0605469 L 12.291016 4.0683594 L 12.277344 4.1132812 C 12.032404 4.7305212 12.181845 5.4300375 12.640625 5.8984375 L 12.642578 5.9003906 L 12.677734 5.9355469 L 12.710938 5.9609375 L 12.712891 5.9628906 C 13.258584 6.4398853 14.021686 6.4188435 14.636719 6.0664062 L 14.998047 6.4277344 L 15 6.4277344 L 15.001953 6.4277344 L 15.001953 6.4257812 L 15.003906 6.4257812 C 15.003467 6.4261609 15.002517 6.4272218 15.001953 6.4277344 C 15.00026 6.429272 14.999054 6.4306119 14.996094 6.4335938 L 12.636719 8.7890625 L 12.304688 8.4179688 C 12.710738 7.7735087 12.734232 6.9385594 12.169922 6.3808594 L 12.167969 6.3789062 L 12.164062 6.375 L 12.158203 6.3691406 L 12.15625 6.3671875 C 11.83411 6.0587475 11.422221 5.9041363 11.019531 5.8789062 C 10.608171 5.8531293 10.127733 5.9653217 9.7578125 6.3242188 L 9.3007812 6.7539062 L 8.2597656 5.7128906 C 8.3838756 5.5918406 8.539975 5.4361537 8.609375 5.3710938 L 8.640625 5.3398438 C 9.188835 4.7811638 9.3161712 4.0257875 9.0820312 3.4296875 C 8.8824213 2.9214975 8.519245 2.6090887 8.421875 2.5117188 L 8.4179688 2.5078125 C 7.9411888 2.0338325 7.3413219 1.77045 6.7324219 1.59375 C 7.2261519 1.495053 7.7978906 1.2572363 8.2128906 1.2539062 z M 5.890625 6.6289062 L 5.5390625 6.9785156 L 0.59570312 11.904297 C 0.40468313 12.093407 0.289515 12.215518 0.203125 12.392578 C 0.127839 12.546888 0.096713125 12.744394 0.095703125 12.990234 L 0.095703125 13.005859 C 0.12597313 14.090059 1.0036506 14.967747 2.0878906 14.998047 L 2.0996094 14.998047 C 2.3448894 14.998847 2.4682744 14.909024 2.6152344 14.808594 C 2.7622044 14.708154 2.9200713 14.572116 3.1132812 14.378906 L 8.4023438 9.0976562 L 5.890625 6.6289062 z M 5.8945312 8.0351562 L 6.9804688 9.1015625 L 2.40625 13.671875 C 2.24547 13.832655 2.1275337 13.926729 2.0585938 13.974609 C 1.5192537 13.928379 1.1119931 13.530739 1.0957031 12.980469 L 1.0957031 12.978516 C 1.0970254 12.880005 1.1005485 12.842592 1.1015625 12.832031 L 1.1015625 12.830078 C 1.1140308 12.815424 1.1716571 12.741078 1.3007812 12.613281 L 5.8945312 8.0351562 z " />
</svg>

<svg width="16px" height="16px" version="1.1" viewBox="0 0 16 16" xmlns="http://www.w3.org/2000/svg">
 <path d="m8.2051 0.25391c-1.1347 0.0091198-2.4623 0.30795-3.8047 0.86133l-0.125 0.052734-0.082031 0.10742c-0.071487 0.09377-0.20558 0.32073-0.12109 0.59766l0.00586 0.019531 0.00781 0.019531c0.095617 0.23924 0.3794 0.43501 0.65234 0.42773h0.00782c0.95939-0.042734 2.2733 0.18932 2.9668 0.87695l0.00195 0.00195c0.16021 0.16021 0.33495 0.31704 0.4375 0.57812 0.068027 0.17319 0.042547 0.5695-0.22656 0.84375l-0.01172 0.01172c-0.16555 0.15565-0.4519 0.43712-0.71679 0.69727l-0.36133 0.35352 2.4453 2.4453 1.1699-1.1035 2e-3 -0.00195c0.13509-0.13111 0.31635-0.17972 0.50386-0.16797 0.19619 0.012294 0.3678 0.080837 0.50781 0.21484 0.25977 0.25587 0.25914 0.68614 0 0.94531-0.24775 0.24424-0.24539 0.70009 0 0.94531l2e-3 0.00195 0.47461 0.5293 0.01172 0.011719c0.18975 0.18632 0.45628 0.29439 0.71484 0.2832 0.25852-0.011183 0.49613-0.13094 0.67183-0.30664l2.3652-2.3613 2e-3 -0.00195c0.37951-0.38322 0.37724-1.0304 0.0039-1.4102l-2e-3 -0.00195-0.48828-0.48828-0.0059-0.00391c-0.07607-0.07159-0.17484-0.14702-0.33398-0.18359-0.15914-0.036577-0.38692 0.00217-0.53906 0.11719l-0.02344 0.015625-0.01953 0.019531c-0.26161 0.24758-0.67908 0.24673-0.94331-0.0019554-0.1851-0.18894-0.24361-0.47053-0.14844-0.71484 2.5e-4 -6.401e-4 -2.51e-4 -0.00131 0-0.00195l2e-3 -0.00195v-0.00195c3.12e-4 -7.354e-4 -3.1e-4 -0.00122 0-0.00195 0.20141-0.47741 0.07232-0.99212-0.17773-1.2422-0.95039-0.95427-1.6114-1.6452-2.168-2.1562l-0.0156-0.01562c-0.55812-0.55998-1.4826-0.81793-2.6426-0.80861zm0.00781 1c0.98684-0.00793 1.6917 0.27877 1.9277 0.51562l0.0078 0.00781 0.01563 0.015625 0.0078 0.00781c0.51641 0.47308 1.1886 1.1729 2.1523 2.1406 0.0137 0.0137 8e-3 0.02837-0.0293 0.11914l-0.0039 0.00781-0.01367 0.044922c-0.24494 0.61724-0.0955 1.3168 0.36328 1.7852l2e-3 0.00195 0.03516 0.035156 0.03516 0.027344-0.04102-0.037109c0.54806 0.51582 1.3339 0.50215 1.9648 0.14062l0.36133 0.36133c0.0086-2.839e-4 0.01598-0.012252-2e-3 0.00586l-2.3594 2.3555-0.33203-0.37109c0.40605-0.64446 0.42954-1.4794-0.13477-2.0371l-2e-3 -0.00195-0.0039-0.00391-0.0059-0.00586-2e-3 -0.00195c-0.32214-0.30844-0.73391-0.46305-1.1366-0.48828-0.41136-0.025777-0.89178 0.086413-1.2617 0.44531l-0.45703 0.42969-1.041-1.041c0.12411-0.12105 0.28021-0.27674 0.34961-0.3418l0.031252-0.031252c0.54821-0.55868 0.67554-1.3141 0.4414-1.9102-0.19961-0.50819-0.56279-0.8206-0.66016-0.91797l-0.0039-0.0039c-0.47678-0.47398-1.0767-0.73737-1.6856-0.91407 0.49373-0.098697 1.0655-0.33651 1.4805-0.33984zm4.9922 3.2344-0.0078 0.025391-0.0078 0.00977zm-7.3145 2.1406-0.35156 0.34961-4.9434 4.9258c-0.19102 0.18911-0.30619 0.31122-0.39258 0.48828-0.075286 0.15431-0.10641 0.35182-0.10742 0.59766v0.0156c0.03027 1.0842 0.90796 1.9619 1.9922 1.9922h0.01172c0.24528 8e-4 0.36866-0.08902 0.51562-0.18945 0.14697-0.10044 0.30484-0.23648 0.49805-0.42969l5.2891-5.2812zm0.0039062 1.4063 1.0859 1.0664-4.5742 4.5703c-0.16078 0.16078-0.27872 0.25485-0.34766 0.30273-0.53934-0.04623-0.9466-0.44387-0.96289-0.99414-1.96e-5 -6.63e-4 1.85e-5 -0.0013 0-2e-3 0.00182-0.13559 0.00851-0.15388 0.00586-0.14844-0.012907 0.02645 0.034224-0.0535 0.19922-0.2168z" fill="#363636"/>
</svg>
